X: 10
T: Ding Dong Merrily on High v.1
P: piffero primo c0011
O: French
%R: march
F: http://ancients.sudburymuster.org/mus/col/pdf/carolsF.pdf
Z: 2020 John Chambers <jc:trillian.mit.edu>
M: 4/4
L: 1/8
K: G
% - - - - - - - - - -
[|\
D8 | D8 | D8 | D8 ||\
G2G2 AGFE | D6 D2 | (E2G2) (G2F2) | G4 G4 |\
G2G2 AGFE | D6 D2 | (E2G2) (G2F2) | G4 G4 ||
d3c BcdB | c3B ABcA | B3A GABG | A3G FGAF |\
G3F EFGE | F3E D2D2 | E2G2 G2F2 | G4 G2z2 |]
%% - - - - - - - - - -


